actions/16/document-print.svg

<svg xmlns="http://www.w3.org/2000/svg" viewBox="0 0 16 16">
  <defs id="defs3051">
    <style type="text/css" id="current-color-scheme">.ColorScheme-Text {color:#fcfcfc;}</style>
  </defs>
 <path style="fill:currentColor;fill-opacity:1;stroke:none" 
     d="m 4,2 v 1 2 c 0,0 -2,0 -2,2 0,2 0,1 0,3 0,2 2,2 2,2 h 1 v 1 1 h 5 1 v -1 -1 h 1 c 0,0 2,0 2,-2 C 14,8 14,9 14,7 14,5 12,5 12,5 V 3 2 Z m 1,1 h 6 V 5 H 5 Z M 3,7 C 3,6 4,6 4,6 h 8.033796 C 12.033796,6 13,6 13,7 c 0,1 0,2 0,3 0,1 -1,1 -1,1 V 10 H 4 v 1 C 4,11 3,11 3,10 3,9 3,8 3,7 Z m 7,0 v 1 h 2 V 7 Z m -4,5 h 4 v 1 H 6 Z"
     class="ColorScheme-Text"
     />
</svg>

<svg xmlns="http://www.w3.org/2000/svg" viewBox="0 0 16 16">
  <defs id="defs3051">
    <style type="text/css" id="current-color-scheme">
      .ColorScheme-Text {
        color:#eff0f1;
      }
      </style>
  </defs>
 <path style="fill:currentColor;fill-opacity:1;stroke:none" 
     d="M 4 2 L 4 3 L 4 5 L 3 5 L 2 5 L 2 6 L 2 11 L 2 12 L 3 12 L 5 12 L 5 13 L 5 14 L 10 14 L 11 14 L 11 13 L 11 12 L 13 12 L 14 12 L 14 11 L 14 6 L 14 5 L 12 5 L 12 3 L 12 2 L 4 2 z M 5 3 L 11 3 L 11 5 L 5 5 L 5 3 z M 3 6 L 13 6 L 13 11 L 12 11 L 12 10 L 4 10 L 4 11 L 3 11 L 3 6 z M 10 7 L 10 8 L 12 8 L 12 7 L 10 7 z M 6 12 L 10 12 L 10 13 L 6 13 L 6 12 z "
     class="ColorScheme-Text"
     />
</svg>
